flaticon/gastronomy/seeds.svg

<svg xmlns="http://www.w3.org/2000/svg" width="32" height="32" viewBox="0 0 24 24">
    <path d="M 22.078125 10.144531 L 21.902344 9.4375 L 21.242188 9.96875 C 21.003906 9.3125 20.757812 8.914062 20.644531 8.753906 L 20.515625 8.574219 L 20.300781 8.558594 C 20.152344 8.546875 19.832031 8.539062 19.371094 8.59375 L 19.664062 7.707031 L 18.847656 7.902344 C 18.625 7.960938 18.375 8.03125 18.105469 8.117188 C 18.105469 8.117188 18.105469 8.117188 18.105469 8.113281 C 18.210938 2.761719 15.957031 0.386719 15.699219 0.132812 C 15.695312 0.128906 15.6875 0.128906 15.683594 0.125 C 15.675781 0.117188 15.675781 0.113281 15.667969 0.105469 C 15.636719 0.0820312 15.601562 0.0703125 15.566406 0.0507812 C 15.550781 0.0429688 15.535156 0.03125 15.519531 0.0273438 C 15.457031 0.00390625 15.390625 -0.00390625 15.328125 0.00390625 C 15.324219 0.00390625 15.324219 0 15.324219 0 C 14.964844 0.0390625 11.71875 0.484375 8.433594 4.753906 C 8.246094 5.042969 8.074219 5.339844 7.90625 5.644531 C 6.414062 4.574219 5.269531 4.300781 4.933594 4.242188 C 4.796875 4.21875 4.65625 4.253906 4.550781 4.347656 C 4.382812 4.492188 3.378906 5.40625 2.585938 7.375 C 2.574219 7.398438 2.566406 7.417969 2.558594 7.441406 C 2.085938 8.628906 1.691406 10.183594 1.59375 12.179688 C 1.628906 13.335938 1.808594 14.511719 2.128906 15.675781 C 2.449219 16.839844 2.894531 17.945312 3.472656 18.992188 C 4.816406 21.011719 6.039062 21.515625 7.035156 21.515625 C 7.628906 21.515625 8.140625 21.335938 8.554688 21.195312 C 8.769531 21.121094 9.707031 20.855469 9.855469 20.820312 C 10.320312 21.765625 11.121094 22.15625 11.707031 22.4375 C 11.910156 22.539062 12.90625 23.101562 13.097656 23.230469 C 13.59375 23.558594 14.261719 24 15.1875 24 C 16.066406 24 17.175781 23.601562 18.589844 22.324219 C 19.382812 21.480469 20.085938 20.519531 20.683594 19.46875 C 21.28125 18.421875 21.746094 17.324219 22.078125 16.171875 C 22.632812 13.417969 22.382812 11.375 22.078125 10.144531 Z M 19.046875 9.59375 C 19.46875 9.503906 19.792969 9.484375 20 9.480469 C 20.125 9.691406 20.304688 10.058594 20.46875 10.59375 L 18.085938 12.523438 Z M 14.214844 1.246094 C 13.84375 1.800781 13.472656 2.429688 13.078125 3.1875 C 12.957031 3.414062 13.042969 3.695312 13.269531 3.816406 C 13.339844 3.851562 13.414062 3.867188 13.488281 3.867188 C 13.65625 3.867188 13.816406 3.777344 13.902344 3.621094 C 14.425781 2.621094 14.898438 1.855469 15.386719 1.199219 C 16.019531 2.035156 17.25 4.167969 17.175781 8.058594 C 17.160156 8.203125 17.144531 8.351562 17.121094 8.496094 C 17.109375 8.5 17.097656 8.507812 17.085938 8.511719 C 16.960938 8.566406 16.835938 8.628906 16.707031 8.691406 C 16.621094 8.730469 16.539062 8.773438 16.457031 8.816406 C 16.40625 8.84375 16.355469 8.867188 16.308594 8.894531 C 15.832031 9.144531 15.363281 9.433594 14.894531 9.757812 C 14.863281 9.78125 14.832031 9.800781 14.800781 9.824219 C 14.695312 9.898438 14.585938 9.976562 14.480469 10.054688 C 14.433594 10.089844 14.390625 10.121094 14.34375 10.15625 C 14.246094 10.230469 14.148438 10.308594 14.050781 10.386719 C 13.984375 10.4375 13.921875 10.488281 13.859375 10.542969 C 13.773438 10.609375 13.691406 10.675781 13.609375 10.746094 C 13.460938 10.871094 13.308594 11.003906 13.160156 11.140625 C 12.960938 11.351562 12.769531 11.570312 12.582031 11.792969 C 12.195312 12.257812 11.835938 12.753906 11.503906 13.273438 C 11.5 13.273438 11.5 13.273438 11.5 13.273438 C 11.347656 13.511719 11.203125 13.75 11.066406 13.992188 C 11.046875 14.027344 11.03125 14.0625 11.011719 14.09375 C 10.851562 14.378906 10.703125 14.664062 10.566406 14.957031 C 10.5625 14.960938 10.558594 14.96875 10.554688 14.980469 L 10.542969 15.003906 C 10.539062 15.011719 10.535156 15.023438 10.53125 15.03125 L 10.527344 15.03125 C 10.527344 15.03125 10.527344 15.035156 10.527344 15.035156 C 10.511719 15.066406 10.496094 15.101562 10.480469 15.136719 C 10.847656 12.140625 11.519531 9.328125 12.492188 6.769531 C 12.582031 6.527344 12.460938 6.257812 12.21875 6.167969 C 11.980469 6.078125 11.710938 6.199219 11.621094 6.4375 C 10.59375 9.148438 9.890625 12.132812 9.523438 15.308594 C 9.441406 15.285156 9.359375 15.257812 9.269531 15.230469 C 8.246094 14.949219 6.96875 14.59375 7.027344 11.484375 C 7.136719 10.40625 7.382812 9.316406 7.761719 8.246094 C 7.957031 7.683594 8.199219 7.113281 8.480469 6.550781 C 8.484375 6.550781 8.484375 6.546875 8.484375 6.542969 C 8.703125 6.105469 8.9375 5.6875 9.191406 5.292969 C 11.144531 2.757812 13.03125 1.695312 14.214844 1.246094 Z M 9.570312 19.929688 C 9.390625 19.976562 8.550781 20.207031 8.246094 20.3125 C 7.242188 20.664062 5.992188 21.097656 4.269531 18.511719 C 3.746094 17.558594 3.328125 16.523438 3.027344 15.429688 C 2.726562 14.335938 2.558594 13.234375 2.523438 12.1875 C 2.613281 10.453125 2.933594 9.085938 3.320312 8.03125 C 4.023438 8 4.71875 7.902344 5.398438 7.734375 C 5.648438 7.671875 5.800781 7.421875 5.738281 7.171875 C 5.679688 6.921875 5.425781 6.769531 5.175781 6.832031 C 4.703125 6.949219 4.21875 7.027344 3.730469 7.070312 C 4.21875 6.070312 4.730469 5.476562 4.996094 5.207031 C 5.417969 5.316406 6.332031 5.632812 7.480469 6.480469 C 7.464844 6.511719 7.453125 6.539062 7.441406 6.570312 C 7.347656 6.773438 7.253906 6.976562 7.167969 7.1875 C 7.066406 7.4375 6.96875 7.6875 6.882812 7.9375 C 6.480469 9.078125 6.21875 10.238281 6.097656 11.429688 C 6.023438 15.296875 7.898438 15.820312 9.019531 16.128906 C 9.242188 16.191406 9.898438 16.472656 9.914062 16.472656 C 9.917969 16.472656 9.929688 16.46875 9.933594 16.46875 C 9.925781 16.496094 9.917969 16.523438 9.90625 16.546875 C 9.820312 16.792969 9.746094 17.027344 9.679688 17.253906 C 9.675781 17.265625 9.671875 17.277344 9.671875 17.289062 C 9.621094 17.539062 9.582031 17.773438 9.550781 18 C 9.542969 18.078125 9.539062 18.148438 9.53125 18.222656 C 9.515625 18.371094 9.5 18.519531 9.496094 18.65625 C 9.492188 18.730469 9.492188 18.796875 9.492188 18.871094 C 9.488281 19.011719 9.488281 19.148438 9.496094 19.277344 C 9.5 19.328125 9.5 19.378906 9.503906 19.429688 C 9.519531 19.601562 9.539062 19.765625 9.570312 19.914062 C 9.570312 19.921875 9.570312 19.925781 9.570312 19.929688 Z M 21.171875 15.953125 C 20.871094 16.996094 20.433594 18.023438 19.875 19.007812 C 19.3125 19.996094 18.652344 20.894531 17.9375 21.660156 C 15.601562 23.769531 14.5 23.039062 13.609375 22.453125 C 13.34375 22.273438 12.398438 21.738281 12.113281 21.597656 C 11.542969 21.324219 10.894531 21.003906 10.589844 20.15625 C 10.585938 20.148438 10.589844 20.140625 10.585938 20.132812 C 10.363281 19.484375 10.359375 18.59375 10.578125 17.496094 C 10.636719 17.296875 10.703125 17.097656 10.769531 16.902344 C 10.832031 16.722656 10.902344 16.535156 10.980469 16.332031 C 11.105469 16.015625 11.242188 15.707031 11.382812 15.40625 C 11.390625 15.382812 11.40625 15.355469 11.40625 15.355469 C 11.40625 15.351562 11.40625 15.351562 11.40625 15.351562 C 11.554688 15.042969 11.710938 14.742188 11.875 14.457031 C 12.003906 14.226562 12.140625 14 12.285156 13.78125 C 12.429688 13.554688 12.578125 13.335938 12.734375 13.121094 C 12.734375 13.117188 12.738281 13.117188 12.738281 13.117188 C 12.738281 13.113281 12.738281 13.113281 12.738281 13.113281 C 13.078125 12.644531 13.4375 12.207031 13.8125 11.804688 C 14.003906 11.628906 14.195312 11.46875 14.382812 11.3125 C 14.4375 11.265625 14.496094 11.222656 14.550781 11.175781 C 14.6875 11.066406 14.824219 10.960938 14.960938 10.855469 C 15.019531 10.816406 15.074219 10.773438 15.132812 10.730469 C 15.277344 10.625 15.417969 10.527344 15.558594 10.433594 C 15.601562 10.402344 15.640625 10.375 15.683594 10.347656 C 16.054688 10.101562 16.414062 9.890625 16.753906 9.710938 C 16.824219 9.671875 16.894531 9.640625 16.964844 9.605469 C 17.0625 9.554688 17.160156 9.503906 17.253906 9.460938 C 17.371094 9.40625 17.488281 9.355469 17.605469 9.304688 C 17.828125 9.210938 18.042969 9.125 18.242188 9.054688 L 16.222656 15.230469 L 21.324219 11.101562 C 21.515625 12.25 21.585938 13.886719 21.171875 15.953125 Z M 21.171875 15.953125"/>
    <path d="M 15.175781 11.941406 C 15.03125 12.027344 11.636719 14.117188 11.425781 18.335938 C 11.414062 18.589844 11.613281 18.808594 11.867188 18.824219 C 11.875 18.824219 11.882812 18.824219 11.890625 18.824219 C 12.136719 18.824219 12.34375 18.628906 12.355469 18.382812 C 12.542969 14.671875 15.628906 12.757812 15.65625 12.738281 C 15.878906 12.605469 15.949219 12.320312 15.816406 12.101562 C 15.683594 11.878906 15.398438 11.808594 15.175781 11.941406 Z M 15.175781 11.941406"/>
</svg>

<svg xmlns="http://www.w3.org/2000/svg" width="32" height="32" viewBox="0 0 24 24">
    <path d="M22.078 10.145l-.176-.707-.66.53c-.238-.655-.484-1.054-.597-1.214l-.13-.18-.214-.015a4.96 4.96 0 0 0-.93.035l.293-.887-.816.195c-.223.059-.473.13-.743.215v-.004C18.211 2.762 15.957.387 15.7.133c-.004-.004-.011-.004-.015-.008-.008-.008-.008-.012-.016-.02-.031-.023-.066-.035-.102-.054-.015-.008-.03-.02-.046-.024a.405.405 0 0 0-.192-.023c-.004 0-.004-.004-.004-.004-.36.04-3.605.484-6.89 4.754-.188.289-.36.586-.528.89-1.492-1.07-2.636-1.343-2.972-1.402a.456.456 0 0 0-.383.106c-.168.144-1.172 1.058-1.965 3.027a.476.476 0 0 0-.027.066c-.473 1.188-.868 2.743-.965 4.739.035 1.156.215 2.332.535 3.496.32 1.164.766 2.27 1.344 3.316 1.343 2.02 2.566 2.524 3.562 2.524.594 0 1.106-.18 1.52-.32a31.87 31.87 0 0 1 1.3-.376c.465.946 1.266 1.336 1.852 1.617.203.102 1.2.665 1.39.793.497.329 1.165.77 2.09.77.88 0 1.989-.398 3.403-1.676a14.98 14.98 0 0 0 2.094-2.855 15.003 15.003 0 0 0 1.394-3.297c.555-2.754.305-4.797 0-6.027zm-3.031-.551c.422-.09.746-.11.953-.114.125.211.305.579.469 1.114l-2.383 1.93zm-4.832-8.348a20.408 20.408 0 0 0-1.137 1.942.465.465 0 0 0 .192.628.472.472 0 0 0 .633-.195c.523-1 .995-1.766 1.484-2.422.633.836 1.863 2.969 1.789 6.86-.016.144-.031.293-.055.437-.012.004-.023.012-.035.016-.125.054-.25.117-.379.18-.086.038-.168.081-.25.124-.05.028-.102.051-.148.079-.477.25-.946.539-1.414.863-.032.023-.063.043-.094.066-.106.074-.215.153-.32.23l-.137.102c-.098.074-.196.153-.293.23-.067.052-.13.102-.192.157a13.533 13.533 0 0 0-.7.598 14.648 14.648 0 0 0-1.656 2.133H11.5c-.152.238-.297.476-.434.718-.02.035-.035.07-.054.102a12.888 12.888 0 0 0-.457.886l-.012.024-.012.027h-.004v.004a2.546 2.546 0 0 0-.047.102c.368-2.996 1.04-5.809 2.012-8.367a.467.467 0 0 0-.87-.332c-1.028 2.71-1.731 5.695-2.099 8.87-.082-.023-.164-.05-.253-.078-1.024-.28-2.301-.636-2.243-3.746.11-1.078.356-2.168.735-3.238.195-.562.437-1.133.718-1.695.004 0 .004-.004.004-.008.22-.438.454-.856.707-1.25 1.954-2.535 3.84-3.598 5.024-4.047zM9.57 19.93c-.18.047-1.02.277-1.324.383-1.004.351-2.254.785-3.976-1.801a14.253 14.253 0 0 1-1.243-3.082 14.1 14.1 0 0 1-.504-3.242c.09-1.735.41-3.102.797-4.157a10.62 10.62 0 0 0 2.078-.297.463.463 0 0 0 .34-.562.462.462 0 0 0-.562-.34 9.453 9.453 0 0 1-1.446.238c.489-1 1-1.593 1.266-1.863.422.11 1.336.426 2.484 1.273a.894.894 0 0 0-.039.09c-.093.203-.187.407-.273.617-.102.25-.2.5-.285.75a15.01 15.01 0 0 0-.785 3.493c-.075 3.867 1.8 4.39 2.922 4.699.222.062.878.344.894.344l.02-.004a14.53 14.53 0 0 0-.262.82c-.05.25-.09.484-.121.711-.008.078-.012.148-.02.223-.015.148-.031.297-.035.433-.004.074-.004.14-.004.215a4.65 4.65 0 0 0 .004.406c.004.051.004.102.008.153.016.172.035.336.066.484v.016zm11.602-3.977c-.3 1.043-.738 2.07-1.297 3.055a14.18 14.18 0 0 1-1.938 2.652c-2.335 2.11-3.437 1.38-4.328.793-.265-.18-1.21-.715-1.496-.855-.57-.274-1.218-.594-1.523-1.442-.004-.008 0-.015-.004-.023-.223-.649-.227-1.54-.008-2.637a15.027 15.027 0 0 1 .402-1.164 16.525 16.525 0 0 1 .426-.977v-.003c.149-.309.305-.61.469-.895.129-.23.266-.457.41-.676.145-.226.293-.445.45-.66 0-.004.003-.004.003-.004v-.004c.34-.468.7-.906 1.075-1.308.19-.176.382-.336.57-.492.055-.047.113-.09.168-.137.136-.11.273-.215.41-.32.059-.04.113-.083.172-.126.144-.105.285-.203.426-.296a12.571 12.571 0 0 1 1.195-.723c.07-.04.14-.07.21-.106.099-.05.196-.101.29-.144a11.76 11.76 0 0 1 .988-.406l-2.02 6.175 5.102-4.128c.192 1.148.262 2.785-.152 4.851zm0 0"/>
    <path d="M15.176 11.941c-.145.086-3.54 2.176-3.75 6.395a.472.472 0 0 0 .441.488h.024a.467.467 0 0 0 .464-.441c.188-3.711 3.274-5.625 3.301-5.645a.465.465 0 1 0-.48-.797zm0 0"/>
</svg>
